X:1
T:Quand le berger veid la bergère -- Guillaume Costeley
T:Quand le berger veid la bergère
T:Guillaume Costeley
T:(1530-1606)
%%score [ 1 2 3 4 ]
L:1/8
Q:1/4=176
M:4/4
K:C
V:1 treble nm="Soprano" snm="S."
V:2 treble nm="Alto" snm="A."
V:3 treble-8 nm="Tenor" snm="T."
V:4 bass nm="Basse" snm="B."
V:1
"^Vivement" z8 | z8 | z8 | A4 A2 A2 | c6 A2 | A2 A2 c4 | c4 c2 c2 | A4 A2 E2 | F4 z2 G2 | %9
w: |||Quand~ le~ ber-|ger,~ quand~|le~ ber- ger~|veid~ la~ ber-|gè- re~ Des-|sus,~ des-|
 A4 z2 A2 | c4 z2 c2 | c4 c4 | B4 A4 | A4 ^G4 | A4 A4 | A6 A2 | A2 A2 G2 G2 | ^E4 =E4 | c4 c4- | %19
w: sus,~ des-|sus,~ des-|sus~ la~|ver- dure~|à loy-|sir,~ Il~|vint~ d'u-|ne~ cour- se~ lé-|gè- re,~|il~ vint~|
 c2 c2 c2 c2 | B2 B2 A4 | ^G4 A4 | A4 A4 | G4 F4 | E4 D4 | E8- | E8 |[Q:1/4=120]"^Vif" e8 | e4 d4 | %29
w: _ d'u- ne~ cour-|se~ lé- gè-|re~ Et~|droit~ au~|col~ la~|va~ sai-|sir.~|_|O~|quel~ dé-|
 c8- | c4 B4 | A4 (c4- | c4 B2 A2) | ^G6 G2 | ^G4 G4 | A4 c4 | c4 B4 | A8 | ^G8 |: c2 cc B2 BB | %40
w: sir!~|_ O~|quel~ plai-||sir!~ Il~|a- vait~|d'em~- bras-|ser~ sa~|da-|me!~|Ha~ je~ le~ vy,~ je~ le~|
 A2 AA ^G4 | c2 cc B2 BB | A2 AA G2 G2 | F4 F4 | F4 z2 ^G2 | A8 | A8 | ^G2 G2 G2 G2 | c6 B2 | %49
w: vy,~ je~ le~ vy,~|ha~ je~ le~ vy,~ je~ le~|vy,~ je~ le~ vy~ si~|fort~ ra-|vy,~ si~|fort~|ra-|vy~ Que~ je~ pen-|soys~ qu'il~|
 A4 G4 | (F2 E2 E4- | E4 D4) | E4 z2 G2 | c4 B4 | A8 | ^G8 | z2 A2 c2 B2 | A8 | ^G2 G2 G2 G2 | %59
w: ren- dit~|l'â- * *||me,~ qu'il~|ren- dit~|l'â-|me,~|qu'il~ ren- dit~|l'â-|me,~ que~ je~ pen-|
 (c6 BA | G4) A4 | c4 B4 | A8 |1 ^G8 :|2 ^G8- || G8 |] %66
w: soys~ _ _|_ qu'il~|ren- dit~|l'â-|me.~|\-me.~||
V:2
 z8 | z8 | E4 E2 E2 | F8 | E4 E2 E2 | F4 E4 | F6 E2 | D4 ^C2 C2 | D2 D2 E4 | z2 F2 F4 | %10
w: ||Quand~ le~ ber-|ger,~|quand~ le~ ber-|ger~ veid~|la~ ber-|gè- re~ Des-|sus,~ des- sus,~|des- sus,~|
 z2 A2 A2 A2 | G6 E2 | F4 D4 | E8 | z4 F4 | F6 F2 | F2 F2 E2 E2 | D4 ^C4 | A4 A4- | A2 A2 A2 A2 | %20
w: des- sus~ la~|ver- dure~|à loy-|sir,~|Il~|vint~ d'u-|ne~ cour- se~ lé-|gè- re,~|il~ vint~|_ d'u- ne~ cour-|
 G2 G2 E4 | E6 E2 | F4 z2 F2 | E4 D4 | C6 A,2 | C4 B,4 | ^C8 | A8 | G4 G4 | E8 | z4 E4- | E4 E4- | %32
w: se~ lé- gè-|re~ Et~|droit,~ et~|droit~ au~|col la~|va~ sai-|sir.~|O~|quel~ dé-|sir!~|O~|_ quel~|
 E4 D4 | E6 E2 | E4 E4 | G4 G4 | G4 G4 | E8 | E4 E2 EE |: E2 EE E4- | E4 E2 EE | E8- | E4 E4 | %43
w: * plai-|sir!~ Il~|a- vait~|d'em~- bras-|ser~ sa~|da-|me!~ Ha~ je~ le~|vy,~ je~ le~ vy,~|_ ha~ je~ le~|vy,~|_ si~|
 C4 D4 | B,4 z2 E2 | E8 | F8 | E4 z2 E2 | E2 E2 E4- | E4 E4 | C4 B,4 | A,8 | G,4 E4 | C2 D2 (E4- | %54
w: fort~ ra-|vy,~ si~|fort~|ra-|vy~ Que~|je~ pen- soys~|* qu'il~|ren- dit|l'â-|me,~ qu'il~|ren- dit l'â-|
 E4 D4) | E8- | E4 E4 | C4 D4 | E4 E2 E2 | E6 E2 | E4 C4 | E4 E4 | E8 |1 E4 E2 EE :|2 E8- || E8 |] %66
w: |me,~|* qu'il~|ren- dit~|l'â- me,~ que~|je~ pen-|soys~ qu'il~|ren- dit~|l'â-|me.~ Ha~ je~ le~|\-me.~||
V:3
 z8 | A4 A2 A2 | c6 B2 | c2 c2 d4 | A8 | z2 F2 G2 G2 | A2 A2 A2 G2 | F4 E2 A2 | A2 A2 c4 | %9
w: |Quand~ le~ ber-|ger~ veid~|la~ ber- gè-|re,~|quand~ le~ ber-|ger~ veid~ la~ ber-|gè- re,~ Des-|sus,~ des- sus,~|
 z2 c2 d4 | e4 f4 | z2 e2 e2 e2 | d6 A2 | c4 B4 | A4 c4 | c6 c2 | d2 d2 B2 c2 | A4 A4 | e4 e4- | %19
w: des- sus,~|des- sus,~|des- sus~ la~|ver- dure~|à loy-|sir,~ Il~|vint~ d'u-|ne~ cour- se~ lé-|gè- re,~|il~ vint~|
 e2 e2 f2 f2 | d2 d2 c4 | B2 B2 c4 | z2 c2 c4 | z2 c2 A2 A2 | ^G4 A4 | A4 ^G4 | A8 | c8 | c4 B4 | %29
w: _ d'u- ne~ cour-|se~ lé- gè-|re~ Et~ droit,~|et~ droit,~|et~ droit~ au~|col~ la~|va~ sai-|sir.~|O~|quel~ dé-|
 A8- | A4 ^G4 | c8 | A8 | B6 B2 | B4 B4 | d4 e4 | e4 d4 | c8 | B8 |: z8 | c2 cc B2 BB | A2 AA ^G4 | %42
w: sir!~|_ O~|quel~|plai-|sir!~ Il~|a- vait~|d'em~- bras-|ser~ sa~|da-|me!~||Ha~ je~ le~ vy,~ je~ le~|vy,~ je~ le~ vy,~|
 c2 cc B2 B2 | A4 A4 | ^G4 z2 B2 | c8 | d8 | B8 | z8 | z8 | z8 | z2 A2 A2 A2 | c4 B4 | A4 G4 | F8 | %55
w: ha~ je~ le~ vy~ si~|fort~ ra-|vy,~ si~|fort~|ra-|vy~||||Que~ je~ pen-|soys~ qu'il~|ren- dit~|l'â-|
 E8 | z8 | z2 A2 A2 A2 | c2 c2 B2 B2 | A4 E4- | E4 E4 | A4 B4 | c8 |1 B8 :|2 B8- || B8 |] %66
w: me,~||que~ je~ pen-|soys~ qu'il~ ren- dit~|l'â- me,~|_ qu'il~|ren- dit~|l'â-|me.~|\-me.~||
V:4
 E,4 E,2 E,2 | F,4 D,4 | A,6 G,2 | F,4 D,4 | z2 A,,2 A,,2 A,,2 | D,4 C,4 | F,6 C,2 | %7
w: Quand~ le~ ber-|ger~ veid~|la~ ber-|gè- re,~|quand~ le~ ber-|ger~ veid~|la~ ber-|
 D,4 A,,2 A,,2 | D,4 z2 C,2 | F,4 z2 D,2 | A,4 z2 F,2 | C,4 C,4 | D,4 F,4 | E,4 E,4 | A,,4 F,4 | %15
w: gè- re~ Des-|sus,~ des-|sus,~ des-|sus,~ des-|sus~ la~|ver- dure~|à loy-|sir,~ Il~|
 F,6 F,2 | D,2 D,2 E,2 C,2 | D,4 A,,4 | A,4 A,4- | A,2 A,2 F,2 F,2 | G,2 G,2 A,4 | E,4 A,4 | %22
w: vint~ d'u-|ne~ cour- se~ lé-|gè- re,~|il~ vint~|_ d'u- ne~ cour-|se~ lé- gè-|re~ Et~|
 F,6 F,2 | C,4 D,4 | E,4 F,4 | E,4 E,4 | A,,8 | A,,8 | C,4 G,,4 | A,,8 | z4 E,4 | A,8 | F,8 | %33
w: droit,~ et~|droit~ au~|col~ la~|va~ sai-|sir.~|O~|quel~ dé-|sir!~|O~|quel~|plai-|
 E,6 E,2 | E,4 E,4 | D,4 C,4 | C,4 G,4 | A,8 | E,8 |: A,2 A,A, ^G,2 G,G, | A,2 A,A, E,4 | %41
w: sir!~ Il~|a- vait~|d'em~- bras-|ser~ sa~|da-|me!~|Ha~ je~ le~ vy,~ je~ le~|vy,~ je~ le~ vy,~|
 z4 E,2 E,E, | A,2 A,A, E,2 E,2 | F,4 D,4 | E,4 z2 E,2 | A,8 | D,8 | E,8 | z2 A,2 A,2 A,2 | %49
w: ha~ je~ le~|vy,~ je~ le~ vy~ si~|fort~ ra-|vy,~ si~|fort~|ra-|vy~|Que~ je~ pen-|
 C6 B,2 | A,4 G,4 | F,8 | E,8 | z8 | z2 A,2 A,2 A,2 | C4 B,4 | A,4 E,4 | F,8 | E,8 | %59
w: soys~ qu'il~|ren- dit~|l'â-|me,~||que~ je~ pen-|soys~ qu'il~|ren- dit~|l'â-|me,~|
 z2 A,,2 A,,2 A,,2 | C,6 B,,2 | A,,4 ^G,,4 | A,,8 |1 E,8 :|2 E,8- || E,8 |] %66
w: que~ je~ pen-|soys~ qu'il~|ren- dit~|l'â-|me.~|\-me.~||

